img/icn_service-4.svg

<svg enable-background="new 0 0 24 24" viewBox="0 0 24 24" xmlns="http://www.w3.org/2000/svg"><path clip-rule="evenodd" d="m24 8.2c0-.3-.1-.6-.4-.8-.2-.3-.5-.4-.8-.4h-6.6c-.3 0-.6.1-.8.4-.3.2-.4.5-.4.8v13.6c0 .3.1.6.4.8.2.2.5.4.8.4h6.6c.3 0 .6-.1.8-.4.2-.2.4-.5.4-.8zm-11 14.8h-8l2.6-3h5.4zm6.5-1c-.6 0-1-.4-1-1s.4-1 1-1 1 .4 1 1-.4 1-1 1zm3.5-3v-9h-7v9zm-2-14h-2v-2h-17v13h11v2h-13v-17h21zm-.5 4c.3 0 .5-.2.5-.5s-.2-.5-.5-.5h-2c-.3 0-.5.2-.5.5s.2.5.5.5z" fill="#fff" fill-rule="evenodd"/></svg>

<?xml version="1.0" encoding="utf-8"?>
<!-- Generator: Adobe Illustrator 24.1.2, SVG Export Plug-In . SVG Version: 6.00 Build 0)  -->
<svg version="1.1" id="レイヤー_1" xmlns="http://www.w3.org/2000/svg" xmlns:xlink="http://www.w3.org/1999/xlink" x="0px"
	 y="0px" viewBox="0 0 24 24" style="enable-background:new 0 0 24 24;" xml:space="preserve">
<style type="text/css">
	.st0{fill-rule:evenodd;clip-rule:evenodd;fill:#FFFFFF;}
</style>
<path class="st0" d="M24,8.2c0-0.3-0.1-0.6-0.4-0.8C23.4,7.1,23.1,7,22.8,7h-6.6c-0.3,0-0.6,0.1-0.8,0.4C15.1,7.6,15,7.9,15,8.2
	v13.6c0,0.3,0.1,0.6,0.4,0.8c0.2,0.2,0.5,0.4,0.8,0.4h6.6c0.3,0,0.6-0.1,0.8-0.4c0.2-0.2,0.4-0.5,0.4-0.8C24,21.8,24,8.2,24,8.2z
	 M13,23H5l2.6-3H13V23z M19.5,22c-0.6,0-1-0.4-1-1s0.4-1,1-1c0.6,0,1,0.4,1,1S20.1,22,19.5,22z M23,19v-9h-7v9H23z M21,5h-2V3H2v13
	h11v2H0V1h21V5z M20.5,9C20.8,9,21,8.8,21,8.5S20.8,8,20.5,8h-2C18.2,8,18,8.2,18,8.5S18.2,9,18.5,9H20.5z"/>
</svg>
